assets/img/icons/duotone-icons/Shopping/Price #2.svg

<?xml version="1.0" encoding="UTF-8"?>
<svg width="24px" height="24px" viewBox="0 0 24 24" version="1.1" xmlns="http://www.w3.org/2000/svg" xmlns:xlink="http://www.w3.org/1999/xlink">
    <!-- Generator: Sketch 52.2 (67145) - http://www.bohemiancoding.com/sketch -->
    <title>Stockholm-icons / Shopping / Price #2</title>
    <desc>Created with Sketch.</desc>
    <g id="Stockholm-icons-/-Shopping-/-Price-#2" stroke="none" stroke-width="1" fill="none" fill-rule="evenodd">
        <rect id="bound" x="0" y="0" width="24" height="24"></rect>
        <g id="Group" transform="translate(12.500000, 12.000000) rotate(-315.000000) translate(-12.500000, -12.000000) translate(6.000000, 1.000000)" fill="#335EEA" opacity="0.3">
            <path d="M0.353553391,7.14644661 L3.35355339,7.14644661 C3.4100716,7.14644661 3.46549471,7.14175791 3.51945496,7.13274826 C3.92739876,8.3050906 5.04222146,9.14644661 6.35355339,9.14644661 C8.01040764,9.14644661 9.35355339,7.80330086 9.35355339,6.14644661 C9.35355339,4.48959236 8.01040764,3.14644661 6.35355339,3.14644661 C5.04222146,3.14644661 3.92739876,3.98780262 3.51945496,5.16014496 C3.46549471,5.15113531 3.4100716,5.14644661 3.35355339,5.14644661 L0.436511831,5.14644661 C0.912589923,2.30873327 3.3805571,0.146446609 6.35355339,0.146446609 C9.66726189,0.146446609 12.3535534,2.83273811 12.3535534,6.14644661 L12.3535534,19.1464466 C12.3535534,20.2510161 11.4581229,21.1464466 10.3535534,21.1464466 L2.35355339,21.1464466 C1.24898389,21.1464466 0.353553391,20.2510161 0.353553391,19.1464466 L0.353553391,7.14644661 Z" id="Combined-Shape" transform="translate(6.353553, 10.646447) rotate(-360.000000) translate(-6.353553, -10.646447) "></path>
            <rect id="Rectangle" x="2.35355339" y="13.1464466" width="8" height="2" rx="1"></rect>
            <rect id="Rectangle-Copy" x="3.35355339" y="17.1464466" width="6" height="2" rx="1"></rect>
        </g>
    </g>
</svg>

<svg width="24" height="24" viewBox="0 0 24 24" xmlns="http://www.w3.org/2000/svg"><g fill="none" fill-rule="evenodd"><path d="M0 0h24v24H0z"/><g transform="rotate(45 8.293 18.743)" fill="#335EEA" opacity=".3"><path d="M.354 7.146h3c.056 0 .111-.004.165-.013a3.001 3.001 0 005.835-.987 3 3 0 00-5.835-.986 1.007 1.007 0 00-.165-.014H.437a6.002 6.002 0 0111.917 1v13a2 2 0 01-2 2h-8a2 2 0 01-2-2v-12z"/><rect x="2.354" y="13.146" width="8" height="2" rx="1"/><rect x="3.354" y="17.146" width="6" height="2" rx="1"/></g></g></svg>
